svgs/duotone/microphone-lines.svg

<svg xmlns="http://www.w3.org/2000/svg" viewBox="0 0 384 512"><!-- Font Awesome Pro 6.0.0-alpha2 by @fontawesome - https://fontawesome.com License - https://fontawesome.com/license (Commercial License) --><defs><style>.fa-secondary{opacity:.4}</style></defs><path d="M208 128H288V96H208C199.164 96 192 103.164 192 112S199.164 128 208 128ZM208 192H288V160H208C199.164 160 192 167.164 192 176S199.164 192 208 192ZM344 192H344C330.745 192 320 202.745 320 216V256C320 329.329 258.034 388.423 183.746 383.738C117.664 379.57 64 317.147 64 250.934V216C64 202.745 53.255 192 40 192H40C26.745 192 16 202.745 16 216V248.156C16 337.812 79.969 417.719 168 429.844V464H128C109.807 464 95.158 479.186 96.038 497.572C96.431 505.785 103.778 512 112 512H272C280.222 512 287.569 505.784 287.962 497.572C288.842 479.186 274.195 464 256 464H216V430.219C301.719 418.469 368 344.906 368 256V216C368 202.745 357.255 192 344 192ZM208 256H288V224H208C199.164 224 192 231.164 192 240S199.164 256 208 256Z" class="fa-secondary"/><path d="M192 352C245.031 352 288 309.031 288 256H208C199.164 256 192 248.836 192 240S199.164 224 208 224H288V192H208C199.164 192 192 184.836 192 176S199.164 160 208 160H288V128H208C199.164 128 192 120.836 192 112S199.164 96 208 96H288C288 42.969 245.031 0 192 0S96 42.969 96 96V256C96 309.031 138.969 352 192 352Z" class="fa-primary"/></svg>

<svg xmlns="http://www.w3.org/2000/svg" viewBox="0 0 384 512"><!--! Font Awesome Pro 6.3.0 by @fontawesome - https://fontawesome.com License - https://fontawesome.com/license (Commercial License) Copyright 2023 Fonticons, Inc. --><defs><style>.fa-secondary{opacity:.4}</style></defs><path class="fa-primary" d="M192 352c53.03 0 96-42.97 96-96h-80C199.2 256 192 248.8 192 240S199.2 224 208 224H288V192h-80C199.2 192 192 184.8 192 176S199.2 160 208 160H288V127.1h-80c-8.836 0-16-7.164-16-16s7.164-16 16-16L288 96c0-53.03-42.97-96-96-96s-96 42.97-96 96v160C96 309 138.1 352 192 352z"/><path class="fa-secondary" d="M208 127.1H288V96l-80 0c-8.836 0-16 7.164-16 16S199.2 127.1 208 127.1zM208 192H288V160h-80C199.2 160 192 167.2 192 176S199.2 192 208 192zM344 192C330.7 192 320 202.7 320 215.1V256c0 73.33-61.97 132.4-136.3 127.7c-66.08-4.168-119.7-66.59-119.7-132.8L64 215.1C64 202.7 53.25 192 40 192S16 202.7 16 215.1v32.15c0 89.66 63.97 169.6 152 181.7V464H128c-18.19 0-32.84 15.19-31.96 33.57C96.43 505.8 103.8 512 112 512h160c8.222 0 15.57-6.216 15.96-14.43C288.8 479.2 274.2 464 256 464h-40v-33.77C301.7 418.5 368 344.9 368 256V215.1C368 202.7 357.3 192 344 192zM208 256H288V224h-80C199.2 224 192 231.2 192 240S199.2 256 208 256z"/></svg>
